X:182
T:Sit under My Protection
N:"Slow"
B:O'Neill's 182
Z:Transcribed by henrik.norbeck@mailbox.swipnet.se
M:3/4
L:1/8
K:G
BA|G2 A2 B2|g2 a2 b2|""a2 gfed|g4 gf|
e2 ge dB|de dc BA|B6|GBdg4 g2|
e2 ge dB|de dc BA|G6|g4:|
|:ga|b2 bg fg|a2 gf ed|defg a2|b2 g3 f|
ef g3 f|fed dcB BAG|A6|A3 d/c/ BA|
G2 A2 B2|g2 a2 b2|""a2 gf ed|g4 gf|
e2 ge dB|de dc BA|B6|GBdg4 g2|
e2 ge dB|de dc BA|G6|Hg4:|
